public/assets/images/sponsors/r2c.svg

<svg xmlns="http://www.w3.org/2000/svg" fill="none" viewBox="0 0 100 100"><path fill="#2187D0" d="M0 0h100v100H0V0Z"/><path fill="url(#a)" d="M0 0h100v100H0V0Z"/><path fill="#E05D5B" d="M0 0h100v100H0V0Z"/><path fill="#243D4E" fill-rule="evenodd" d="m37.3653 60.5045 35.0706 24.111H56.9534L20.5128 59.9802v-8.1315h31.6189c4.716 0 8.7798-3.9609 8.7798-8.7759 0-4.9524-3.5443-8.776-8.7798-8.776H39.9292l-4.332-4.3278 4.332-4.3279h12.2025c10.2489 0 17.4531 7.9248 17.4531 17.4317 0 9.6537-8.0056 17.4317-17.4531 17.4317H37.3653Z" clip-rule="evenodd"/><path fill="#243D4E" fill-rule="evenodd" d="M57.0108 84.3671 20.7535 59.6714V51.52h31.4599c4.6923 0 8.7357-3.9706 8.7357-8.7975 0-4.9646-3.5265-8.7975-8.7357-8.7975H40.0723l-4.3103-4.3384 4.3103-4.3385h12.1411c10.1974 0 17.3653 7.9442 17.3653 17.4744 0 9.6774-7.9653 17.4744-17.3653 17.4744H37.5213l34.8942 24.1702H57.0108ZM46.516 63.0092l34.8943 24.1702h-25.262L17.9487 61.1608V48.7077h34.2647c3.1526 0 5.9309-2.7209 5.9309-5.9852 0-3.4832-2.3414-5.9852-5.9309-5.9852H38.9073l-7.1042-7.1507 7.1042-7.1508h13.3061c11.8324 0 20.1701 9.2909 20.1701 20.2867 0 11.2439-9.2343 20.2867-20.1701 20.2867H46.516Z" clip-rule="evenodd"/><path fill="#243D4E" fill-rule="evenodd" d="m19.8718 30.1281 12.7007-12.8205 4.6069 4.6505-8.0937 8.17 8.0938 8.1701-4.607 4.6504-12.7007-12.8205Z" clip-rule="evenodd"/><path fill="#243D4E" fill-rule="evenodd" d="M16.0256 30.1281 32.964 13.4614l8.7027 8.5632-8.2357 8.1035 8.2357 8.1035-8.7027 8.5632-16.9384-16.6667Z" clip-rule="evenodd"/><path fill="#fff" fill-rule="evenodd" d="m41.2114 56.6583 35.0706 24.111H60.7995L24.3589 56.134v-8.1315h31.6189c4.7161 0 8.7799-3.9609 8.7799-8.7759 0-4.9524-3.5443-8.776-8.7799-8.776H43.7753l-4.332-4.3278 4.332-4.3279h12.2025c10.2489 0 17.4531 7.9248 17.4531 17.4317 0 9.6537-8.0056 17.4317-17.4531 17.4317H41.2114Z" clip-rule="evenodd"/><path fill="#243D4E" fill-rule="evenodd" d="M60.857 81.162 24.5996 56.4664v-8.1515h31.4599c4.6924 0 8.7357-3.9706 8.7357-8.7975 0-4.9645-3.5265-8.7974-8.7357-8.7974H43.9184l-4.3103-4.3385 4.3103-4.3385h12.1411c10.1974 0 17.3654 7.9442 17.3654 17.4744 0 9.6775-7.9654 17.4745-17.3654 17.4745H41.3674L76.2616 81.162H60.857ZM50.3622 59.8042l34.8942 24.1701h-25.262L21.7949 57.9558V45.5026h34.2646c3.1527 0 5.9309-2.7209 5.9309-5.9852 0-3.4832-2.3414-5.9851-5.9309-5.9851h-13.306l-7.1043-7.1508 7.1042-7.1508h13.3061c11.8324 0 20.1701 9.2909 20.1701 20.2867 0 11.2439-9.2343 20.2868-20.1701 20.2868h-5.6973Z" clip-rule="evenodd"/><path fill="#fff" fill-rule="evenodd" d="m23.718 26.2819 13.1711-12.8205 4.7776 4.6505-8.3935 8.17 8.3935 8.1701-4.7776 4.6505L23.718 26.2819Z" clip-rule="evenodd"/><path fill="#243D4E" fill-rule="evenodd" d="M19.8718 26.2821 36.8101 9.6155l8.7027 8.5631-8.2356 8.1035 8.2357 8.1036-8.7027 8.5631-16.9384-16.6667Zm13.3905 0 8.2356-8.1035-4.6878-4.6126-12.9233 12.7161 12.9234 12.7161 4.6877-4.6125-8.2356-8.1036Z" clip-rule="evenodd"/><defs><linearGradient id="a" x1="57.2727" x2="77.3476" y1="21.4888" y2="144.697" gradientUnits="userSpaceOnUse"><stop stop-color="#2187D0"/><stop offset="1" stop-color="#1970AF"/></linearGradient></defs></svg>

<svg width="100" height="100" viewBox="0 0 100 100" fill="none" xmlns="http://www.w3.org/2000/svg">
<path d="M0 0H100V100H0V0Z" fill="#2187D0"/>
<path d="M0 0H100V100H0V0Z" fill="url(#paint0_linear)"/>
<path d="M0 0H100V100H0V0Z" fill="#E05D5B"/>
<path fill-rule="evenodd" clip-rule="evenodd" d="M37.3653 60.5045L72.4359 84.6155H56.9534L20.5128 59.9802V51.8487H52.1317C56.8477 51.8487 60.9115 47.8878 60.9115 43.0728C60.9115 38.1204 57.3672 34.2968 52.1317 34.2968H39.9292L35.5972 29.969L39.9292 25.6411H52.1317C62.3806 25.6411 69.5848 33.5659 69.5848 43.0728C69.5848 52.7265 61.5792 60.5045 52.1317 60.5045H37.3653Z" fill="#243D4E"/>
<path fill-rule="evenodd" clip-rule="evenodd" d="M57.0108 84.3671L20.7535 59.6714V51.52H52.2134C56.9057 51.52 60.9491 47.5494 60.9491 42.7225C60.9491 37.7579 57.4226 33.925 52.2134 33.925H40.0723L35.762 29.5866L40.0723 25.2481H52.2134C62.4108 25.2481 69.5787 33.1923 69.5787 42.7225C69.5787 52.3999 61.6134 60.1969 52.2134 60.1969H37.5213L72.4155 84.3671H57.0108ZM46.516 63.0092L81.4103 87.1794H56.1483L17.9487 61.1608V48.7077H52.2134C55.366 48.7077 58.1443 45.9868 58.1443 42.7225C58.1443 39.2393 55.8029 36.7373 52.2134 36.7373H38.9073L31.8031 29.5866L38.9073 22.4358H52.2134C64.0458 22.4358 72.3835 31.7267 72.3835 42.7225C72.3835 53.9664 63.1492 63.0092 52.2134 63.0092H46.516Z" fill="#243D4E"/>
<path fill-rule="evenodd" clip-rule="evenodd" d="M19.8718 30.1281L32.5725 17.3076L37.1794 21.9581L29.0857 30.1281L37.1795 38.2982L32.5725 42.9486L19.8718 30.1281Z" fill="#243D4E"/>
<path fill-rule="evenodd" clip-rule="evenodd" d="M16.0256 30.1281L32.964 13.4614L41.6667 22.0246L33.431 30.1281L41.6667 38.2316L32.964 46.7948L16.0256 30.1281Z" fill="#243D4E"/>
<path fill-rule="evenodd" clip-rule="evenodd" d="M41.2114 56.6583L76.282 80.7693H60.7995L24.3589 56.134V48.0025H55.9778C60.6939 48.0025 64.7577 44.0416 64.7577 39.2266C64.7577 34.2742 61.2134 30.4506 55.9778 30.4506H43.7753L39.4433 26.1228L43.7753 21.7949H55.9778C66.2267 21.7949 73.4309 29.7197 73.4309 39.2266C73.4309 48.8803 65.4253 56.6583 55.9778 56.6583H41.2114Z" fill="white"/>
<path fill-rule="evenodd" clip-rule="evenodd" d="M60.857 81.162L24.5996 56.4664V48.3149H56.0595C60.7519 48.3149 64.7952 44.3443 64.7952 39.5174C64.7952 34.5529 61.2687 30.72 56.0595 30.72H43.9184L39.6081 26.3815L43.9184 22.043H56.0595C66.2569 22.043 73.4249 29.9872 73.4249 39.5174C73.4249 49.1949 65.4595 56.9919 56.0595 56.9919H41.3674L76.2616 81.162H60.857ZM50.3622 59.8042L85.2564 83.9743H59.9944L21.7949 57.9558V45.5026H56.0595C59.2122 45.5026 61.9904 42.7817 61.9904 39.5174C61.9904 36.0342 59.649 33.5323 56.0595 33.5323H42.7535L35.6492 26.3815L42.7534 19.2307H56.0595C67.8919 19.2307 76.2296 28.5216 76.2296 39.5174C76.2296 50.7613 66.9953 59.8042 56.0595 59.8042H50.3622Z" fill="#243D4E"/>
<path fill-rule="evenodd" clip-rule="evenodd" d="M23.718 26.2819L36.8891 13.4614L41.6667 18.1119L33.2732 26.2819L41.6667 34.452L36.8891 39.1025L23.718 26.2819Z" fill="white"/>
<path fill-rule="evenodd" clip-rule="evenodd" d="M19.8718 26.2821L36.8101 9.61548L45.5128 18.1786L37.2772 26.2821L45.5129 34.3857L36.8102 42.9488L19.8718 26.2821ZM33.2623 26.2821L41.4979 18.1786L36.8101 13.566L23.8868 26.2821L36.8102 38.9982L41.4979 34.3857L33.2623 26.2821Z" fill="#243D4E"/>
<defs>
<linearGradient id="paint0_linear" x1="57.2727" y1="21.4888" x2="77.3476" y2="144.697" gradientUnits="userSpaceOnUse">
<stop stop-color="#2187D0"/>
<stop offset="1" stop-color="#1970AF"/>
</linearGradient>
</defs>
</svg>
